packages/icons/48x48/minutes.svg

<?xml version="1.0" encoding="UTF-8"?>
<svg width="48" height="48" viewBox="0 0 48 48" fill="#000000" class="customer-ui__icon"
    xmlns="http://www.w3.org/2000/svg" xmlns:xlink="http://www.w3.org/1999/xlink">
    <path fill-rule="evenodd" clip-rule="evenodd"
        d="M38.3 22.1998C40.4 23.2998 42 25.1998 42.7001 27.4998C43.7001 30.7998 42.8 34.1998 40.2001 36.5998C39.8 36.9998 39.2001 36.9998 38.8 36.5998C38.4 36.1998 38.4 35.5998 38.8 35.1998C40.7001 33.2998 41.4 30.5998 40.6 28.0998C40.1 26.2998 38.8 24.8998 37.2 23.9998C35.6 23.0998 33.7 22.9998 31.9 23.4998C28.3 24.5998 26.2 28.4998 27.3 32.1998C28.2 35.1998 30.9 37.1998 33.9 37.1998L32.5 35.9998C32.176 35.6757 32.1145 35.2203 32.0496 34.74C32.0344 34.6275 32.019 34.5137 32 34.3998C32.3 33.9998 33 33.8998 33.4 34.2998L36.5 36.8998C36.5619 36.8998 36.5855 36.938 36.6181 36.9908C36.6382 37.0234 36.6619 37.0616 36.7 37.0998L36.8 37.1998C36.8576 37.2573 36.882 37.2817 36.8924 37.3111C36.9 37.3329 36.9 37.3573 36.9 37.3998V37.5998V37.6998V37.9998C36.85 38.0498 36.825 38.0998 36.8 38.1498C36.775 38.1998 36.75 38.2498 36.7 38.2998L34.1 41.3998C33.9 41.6998 33.6 41.7998 33.3 41.7998C33.1 41.7998 32.9 41.7998 32.7 41.5998C32.3 41.2998 32.2 40.5998 32.6 40.1998L33.6 38.9998C29.8 38.9998 26.4 36.5998 25.2 32.8998C23 34.5998 20.4 36.5998 18.3 37.7998C16.8 38.7998 15.4 39.0998 14.2 39.0998C11.5 39.0998 9.60005 37.2998 8.90005 36.4998L6.80005 34.3998C6.20005 33.7998 5.80005 32.8998 5.80005 31.8998C5.80005 30.9998 6.10005 30.0998 6.80005 29.3998L10.9 25.2998C12.3 23.8998 14.6 23.8998 16 25.2998L18.3 27.5998C19.3 26.7998 21.3 25.1998 23.1 23.3998C24.9 21.5998 26.5 19.5998 27.3 18.5998L25 16.2998C23.6 14.8998 23.6 12.5998 25 11.1998L29.1 7.0998C30.5 5.6998 32.8 5.6998 34.2 7.0998L36.3 9.1998C36.3243 9.22407 36.3497 9.24936 36.3761 9.27567C37.5469 10.442 40.7317 13.6145 37.7 18.6998C37.3 19.4998 36.7001 20.3998 36 21.3998C36.8 21.4998 37.6 21.7998 38.3 22.1998ZM25.1 30.7998C24.8 26.6998 27.3 22.6998 31.4 21.4998C32.2 21.2998 33 21.1998 33.7001 21.1998C34.6 19.8998 35.4 18.6998 36 17.6998C38.3 13.8998 36.2 11.7998 35 10.6998L32.9 8.5998C32.3 7.9998 31.3 7.9998 30.7001 8.5998L26.6 12.6998C26 13.2998 26 14.2998 26.6 14.8998L29.5 17.7998C29.9 18.0998 29.9 18.6998 29.6 19.0998C29.5837 19.1162 29.5108 19.2106 29.389 19.3683C28.7679 20.1728 26.8738 22.6261 24.7001 24.7998C22.5264 26.9735 20.0731 28.8676 19.2686 29.4887C19.1108 29.6106 19.0164 29.6834 19 29.6998C18.6 29.9998 18 29.9998 17.7 29.5998L14.8 26.6998C14.2 26.0998 13.2 26.0998 12.6 26.6998L8.50005 30.7998C8.20005 31.0998 8.00005 31.4998 8.00005 31.8998C8.00005 32.2998 8.20005 32.6998 8.50005 32.9998L10.6 35.0998C10.6173 35.117 10.6347 35.1345 10.6524 35.1522C11.7662 36.2676 13.8595 38.3638 17.6 36.0998C19.8 34.7998 22.9 32.5998 25.1 30.7998Z"
        fill="inherit" />
    <mask id="mask0_252:8777" style="mask-type:alpha" maskUnits="userSpaceOnUse" x="5" y="6" width="39" height="36">
        <path fill-rule="evenodd" clip-rule="evenodd"
            d="M38.3 22.1998C40.4 23.2998 42 25.1998 42.7001 27.4998C43.7001 30.7998 42.8 34.1998 40.2001 36.5998C39.8 36.9998 39.2001 36.9998 38.8 36.5998C38.4 36.1998 38.4 35.5998 38.8 35.1998C40.7001 33.2998 41.4 30.5998 40.6 28.0998C40.1 26.2998 38.8 24.8998 37.2 23.9998C35.6 23.0998 33.7 22.9998 31.9 23.4998C28.3 24.5998 26.2 28.4998 27.3 32.1998C28.2 35.1998 30.9 37.1998 33.9 37.1998L32.5 35.9998C32.176 35.6757 32.1145 35.2203 32.0496 34.74C32.0344 34.6275 32.019 34.5137 32 34.3998C32.3 33.9998 33 33.8998 33.4 34.2998L36.5 36.8998C36.5619 36.8998 36.5855 36.938 36.6181 36.9908C36.6382 37.0234 36.6619 37.0616 36.7 37.0998L36.8 37.1998C36.8576 37.2573 36.882 37.2817 36.8924 37.3111C36.9 37.3329 36.9 37.3573 36.9 37.3998V37.5998V37.6998V37.9998C36.85 38.0498 36.825 38.0998 36.8 38.1498C36.775 38.1998 36.75 38.2498 36.7 38.2998L34.1 41.3998C33.9 41.6998 33.6 41.7998 33.3 41.7998C33.1 41.7998 32.9 41.7998 32.7 41.5998C32.3 41.2998 32.2 40.5998 32.6 40.1998L33.6 38.9998C29.8 38.9998 26.4 36.5998 25.2 32.8998C23 34.5998 20.4 36.5998 18.3 37.7998C16.8 38.7998 15.4 39.0998 14.2 39.0998C11.5 39.0998 9.60005 37.2998 8.90005 36.4998L6.80005 34.3998C6.20005 33.7998 5.80005 32.8998 5.80005 31.8998C5.80005 30.9998 6.10005 30.0998 6.80005 29.3998L10.9 25.2998C12.3 23.8998 14.6 23.8998 16 25.2998L18.3 27.5998C19.3 26.7998 21.3 25.1998 23.1 23.3998C24.9 21.5998 26.5 19.5998 27.3 18.5998L25 16.2998C23.6 14.8998 23.6 12.5998 25 11.1998L29.1 7.0998C30.5 5.6998 32.8 5.6998 34.2 7.0998L36.3 9.1998C36.3243 9.22407 36.3497 9.24936 36.3761 9.27567C37.5469 10.442 40.7317 13.6145 37.7 18.6998C37.3 19.4998 36.7001 20.3998 36 21.3998C36.8 21.4998 37.6 21.7998 38.3 22.1998ZM25.1 30.7998C24.8 26.6998 27.3 22.6998 31.4 21.4998C32.2 21.2998 33 21.1998 33.7001 21.1998C34.6 19.8998 35.4 18.6998 36 17.6998C38.3 13.8998 36.2 11.7998 35 10.6998L32.9 8.5998C32.3 7.9998 31.3 7.9998 30.7001 8.5998L26.6 12.6998C26 13.2998 26 14.2998 26.6 14.8998L29.5 17.7998C29.9 18.0998 29.9 18.6998 29.6 19.0998C29.5837 19.1162 29.5108 19.2106 29.389 19.3683C28.7679 20.1728 26.8738 22.6261 24.7001 24.7998C22.5264 26.9735 20.0731 28.8676 19.2686 29.4887C19.1108 29.6106 19.0164 29.6834 19 29.6998C18.6 29.9998 18 29.9998 17.7 29.5998L14.8 26.6998C14.2 26.0998 13.2 26.0998 12.6 26.6998L8.50005 30.7998C8.20005 31.0998 8.00005 31.4998 8.00005 31.8998C8.00005 32.2998 8.20005 32.6998 8.50005 32.9998L10.6 35.0998C10.6173 35.117 10.6347 35.1345 10.6524 35.1522C11.7662 36.2676 13.8595 38.3638 17.6 36.0998C19.8 34.7998 22.9 32.5998 25.1 30.7998Z"
            fill="white" />
    </mask>
    <g mask="url(#mask0_252:8777)">
        <rect x="0.5" width="48" height="48" fill="inherit" />
    </g>
</svg>

<svg width="48" height="48" class="customer-ui__icon" xmlns="http://www.w3.org/2000/svg"><path fill-rule="evenodd" clip-rule="evenodd" d="M38.3 22.2c2.1 1.1 3.7 3 4.4 5.3 1 3.3.1 6.7-2.5 9.1-.4.4-1 .4-1.4 0-.4-.4-.4-1 0-1.4 1.9-1.9 2.6-4.6 1.8-7.1-.5-1.8-1.8-3.2-3.4-4.1-1.6-.9-3.5-1-5.3-.5-3.6 1.1-5.7 5-4.6 8.7.9 3 3.6 5 6.6 5L32.5 36c-.324-.324-.386-.78-.45-1.26-.016-.113-.031-.226-.05-.34.3-.4 1-.5 1.4-.1l3.1 2.6c.062 0 .086.038.118.09a.56.56 0 0 0 .082.11l.1.1c.058.057.082.082.092.111.008.022.008.046.008.089V38c-.05.05-.075.1-.1.15-.025.05-.05.1-.1.15l-2.6 3.1c-.2.3-.5.4-.8.4-.2 0-.4 0-.6-.2-.4-.3-.5-1-.1-1.4l1-1.2c-3.8 0-7.2-2.4-8.4-6.1-2.2 1.7-4.8 3.7-6.9 4.9-1.5 1-2.9 1.3-4.1 1.3-2.7 0-4.6-1.8-5.3-2.6l-2.1-2.1c-.6-.6-1-1.5-1-2.5 0-.9.3-1.8 1-2.5l4.1-4.1c1.4-1.4 3.7-1.4 5.1 0l2.3 2.3c1-.8 3-2.4 4.8-4.2 1.8-1.8 3.4-3.8 4.2-4.8L25 16.3c-1.4-1.4-1.4-3.7 0-5.1l4.1-4.1c1.4-1.4 3.7-1.4 5.1 0l2.1 2.1.076.076c1.17 1.166 4.356 4.338 1.324 9.424-.4.8-1 1.7-1.7 2.7.8.1 1.6.4 2.3.8Zm-13.2 8.6c-.3-4.1 2.2-8.1 6.3-9.3.8-.2 1.6-.3 2.3-.3.9-1.3 1.7-2.5 2.3-3.5 2.3-3.8.2-5.9-1-7l-2.1-2.1c-.6-.6-1.6-.6-2.2 0l-4.1 4.1c-.6.6-.6 1.6 0 2.2l2.9 2.9c.4.3.4.9.1 1.3-.016.016-.09.11-.211.268-.621.805-2.515 3.258-4.689 5.432-2.174 2.174-4.627 4.068-5.431 4.689-.158.122-.253.194-.269.21-.4.3-1 .3-1.3-.1l-2.9-2.9c-.6-.6-1.6-.6-2.2 0l-4.1 4.1c-.3.3-.5.7-.5 1.1 0 .4.2.8.5 1.1l2.1 2.1.052.053c1.114 1.116 3.208 3.212 6.948.948 2.2-1.3 5.3-3.5 7.5-5.3Z" fill="inherit"/><mask id="a" style="mask-type:alpha" maskUnits="userSpaceOnUse" x="5" y="6" width="39" height="36"><path fill-rule="evenodd" clip-rule="evenodd" d="M38.3 22.2c2.1 1.1 3.7 3 4.4 5.3 1 3.3.1 6.7-2.5 9.1-.4.4-1 .4-1.4 0-.4-.4-.4-1 0-1.4 1.9-1.9 2.6-4.6 1.8-7.1-.5-1.8-1.8-3.2-3.4-4.1-1.6-.9-3.5-1-5.3-.5-3.6 1.1-5.7 5-4.6 8.7.9 3 3.6 5 6.6 5L32.5 36c-.324-.324-.386-.78-.45-1.26-.016-.113-.031-.226-.05-.34.3-.4 1-.5 1.4-.1l3.1 2.6c.062 0 .086.038.118.09a.56.56 0 0 0 .082.11l.1.1c.058.057.082.082.092.111.008.022.008.046.008.089V38c-.05.05-.075.1-.1.15-.025.05-.05.1-.1.15l-2.6 3.1c-.2.3-.5.4-.8.4-.2 0-.4 0-.6-.2-.4-.3-.5-1-.1-1.4l1-1.2c-3.8 0-7.2-2.4-8.4-6.1-2.2 1.7-4.8 3.7-6.9 4.9-1.5 1-2.9 1.3-4.1 1.3-2.7 0-4.6-1.8-5.3-2.6l-2.1-2.1c-.6-.6-1-1.5-1-2.5 0-.9.3-1.8 1-2.5l4.1-4.1c1.4-1.4 3.7-1.4 5.1 0l2.3 2.3c1-.8 3-2.4 4.8-4.2 1.8-1.8 3.4-3.8 4.2-4.8L25 16.3c-1.4-1.4-1.4-3.7 0-5.1l4.1-4.1c1.4-1.4 3.7-1.4 5.1 0l2.1 2.1.076.076c1.17 1.166 4.356 4.338 1.324 9.424-.4.8-1 1.7-1.7 2.7.8.1 1.6.4 2.3.8Zm-13.2 8.6c-.3-4.1 2.2-8.1 6.3-9.3.8-.2 1.6-.3 2.3-.3.9-1.3 1.7-2.5 2.3-3.5 2.3-3.8.2-5.9-1-7l-2.1-2.1c-.6-.6-1.6-.6-2.2 0l-4.1 4.1c-.6.6-.6 1.6 0 2.2l2.9 2.9c.4.3.4.9.1 1.3-.016.016-.09.11-.211.268-.621.805-2.515 3.258-4.689 5.432-2.174 2.174-4.627 4.068-5.431 4.689-.158.122-.253.194-.269.21-.4.3-1 .3-1.3-.1l-2.9-2.9c-.6-.6-1.6-.6-2.2 0l-4.1 4.1c-.3.3-.5.7-.5 1.1 0 .4.2.8.5 1.1l2.1 2.1.052.053c1.114 1.116 3.208 3.212 6.948.948 2.2-1.3 5.3-3.5 7.5-5.3Z" fill="#fff"/></mask><g mask="url(#a)"><path fill="inherit" d="M.5 0h48v48H.5z"/></g></svg>
